; generated by PrusaSlicer 2.9.4 on 2025-12-27 at 09:16:31 UTC


; printer_model = COREONE
; filament_type = PLA
; filament_abrasive = 0
; nozzle_diameter = 0.4
; nozzle_high_flow = 1
; bed_temperature = 60
; brim_width = 0
; fill_density = 15%
; layer_height = 0.2
; temperature = 220
; ironing = 0
; support_material = 1
; extruder_colour = ""
; max_layer_z = 32.00
; objects_info = {"objects":[{"name":"Ender_Leader_SO101.stl_1_6","polygon":[[144.685,96.044],[145.866,96.189],[147.030,96.433],[148.169,96.776],[149.275,97.213],[150.339,97.744],[151.355,98.362],[152.315,99.065],[153.212,99.846],[154.039,100.701],[154.790,101.623],[155.461,102.605],[156.046,103.641],[156.540,104.722],[156.941,105.842],[157.246,106.992],[157.452,108.163],[157.558,109.348],[157.563,110.537],[157.467,111.722],[157.270,112.896],[156.975,114.048],[156.583,115.171],[156.097,116.256],[155.521,117.297],[154.859,118.284],[154.115,119.212],[153.295,120.074],[152.405,120.863],[151.451,121.573],[150.440,122.200],[149.380,122.739],[148.278,123.186],[147.141,123.538],[145.979,123.792],[144.800,123.946],[143.612,124.000],[137.177,123.963],[130.744,123.768],[125.903,123.464],[121.129,122.996],[115.398,122.202],[111.162,121.469],[100.255,119.207],[99.282,118.938],[98.341,118.572],[97.442,118.114],[96.594,117.566],[95.805,116.937],[95.084,116.231],[94.437,115.455],[93.872,114.619],[93.394,113.730],[93.009,112.797],[92.719,111.830],[92.528,110.839],[92.438,109.834],[92.450,108.824],[92.564,107.821],[92.778,106.835],[93.090,105.875],[93.857,104.247],[95.491,101.395],[96.296,100.314],[97.067,99.480],[97.917,98.760],[98.872,98.146],[99.959,97.630],[101.055,97.244],[103.022,96.776],[105.164,96.469],[108.015,96.229],[111.990,96.075],[118.078,96.001]]}]}
; filament used [mm] = 3745.24
; filament used [g] = 11.17
; filament cost = 0.19
; filament used [cm3] = 9.01
; total filament used for wipe tower [g] = 0.00
; estimated printing time (normal mode) = 28m 21s
; estimated printing time (silent mode) = 33m 9s

;
;

;
;

;
;

;
;

M73 P0 R28
M73 Q0 S33
M201 X10000 Y10000 Z400 E5000
M203 X350 Y350 Z12 E100
M204 P7000 R2500 T7000
M205 X10.00 Y10.00 Z2.00 E10.00
M205 S0 T0
M486 S0
M486 AEnder_Leader_SO101.stl_1_6
M486 S-1
;TYPE:Custom
M17
M862.1 P0.4 A0 F1
M862.3 P "COREONE"
M862.5 P2
M862.6 P"Input shaper"
M115 U6.3.4+10511
M555 X89.4582 Y89.018 W66.6932 H37.467
G90
M83
M140 S60
M109 R170
M84 E
G28
M141 S0
M106 S70
G0 Z40 F10000
M104 T0 S70
M190 R60
M107
G29 G
M109 R170
M302 S155
G1 E-2 F2400
M84 E
G29 P9 X208 Y-2.5 W32 H4
; MBL
M84 E
G29 P1
G29 P1 X150 Y0 W100 H20 C
G29 P3.2
G29 P3.13
G29 A
; prepare for purge
M104 S230
G0 X249 Y-2.5 Z15 F4800
M109 S230
G92 E0
M569 S0 E
; Extrude purge line
G92 E0
G1 E2 F2400
G0 E5 X235 Z0.2 F500
G0 X225 E4 F500
G0 X215 E4 F650
M73 Q0 S32
G0 X205 E4 F800
G0 X202 Z0.05 F8000
G0 X199 Z0.2 F8000
G92 E0
M221 S100
G21
G90
M83
M572 S0.036
M142 S36
M107
;LAYER_CHANGE
;Z:0.2
;HEIGHT:0.2
G1 E-.7 F2700
G1 Z.8 F720
M486 S0
G1 X125.492 Y122.371 F21000
G1 Z.2 F720
G1 E.7 F1500
M204 P500
;TYPE:Support material interface
;WIDTH:0.4
G1 F2700
G1 X125.713 Y122.643 E.0102
G3 X125.488 Y122.581 I-.094 J-.099 E.00813
G1 X125.145 Y122.061 E.01813
G1 X125.175 Y121.992 E.00219
G1 X125.401 Y122.218 E.0093
G1 X125.246 Y121.659 E.01688
G2 X125.083 Y121.112 I-.558 J-.132 E.01738
G1 X125.019 Y120.26 E.02486
G1 X125.15 Y120.391 E.00539
G1 X125.086 Y119.539 E.02486
G3 X124.932 Y119.09 I.281 J-.347 E.01456
G1 X124.973 Y118.638 E.01321
G1 X125.071 Y118.736 E.00403
G3 X125.29 Y118.168 I1.546 J.27 E.01783
G3 X125.246 Y118.01 I.015 J-.09 E.00597
G1 X125.581 Y117.671 E.01387
G2 X125.834 Y117.637 I.118 J-.079 E.00923
G1 X126.186 Y117.488 E.01112
G1 X126.092 Y117.394 E.00387
G3 X126.414 Y117.446 I.149 J.104 E.01181
G1 X126.361 Y117.455 E.00156
M204 P3000
G1 E-.7
M204 T7000
G1 X122.353 Y105.634 Z.418 F21000
G1 Z.2 F720
G1 E.7 F1500
M204 P500
G1 F2700
G1 X123.001 Y105.637 E.01886
G2 X122.644 Y105.516 I-.241 J.123 E.01214
G1 X122.191 Y105.482 E.01322
M204 P3000
G1 X121.084 Y104.599 F21000
M204 P500
G1 F2700
G2 X121.696 Y105.293 I1.459 J-.672 E.02731
G3 X122.178 Y105.601 I-.297 J.992 E.01686
G3 X120.779 Y104.203 I.437 J-1.836 E.06057
G1 X121.012 Y104.436 E.00959
G1 X120.405 Y103.041 E.04427
G1 X120.172 Y102.808 E.00959
G1 X119.565 Y101.413 E.04427
G1 X119.798 Y101.646 E.00959
G1 X119.191 Y100.252 E.04424
G1 X118.958 Y100.019 E.00959
G1 X118.426 Y98.794 E.03886
M204 P3000
G1 X118.26 Y98.299 F21000
M204 P500
G1 F2700
G2 X118.584 Y98.857 I.795 J-.09 E.01932
G3 X118.366 Y97.85 I1.566 J-.867 E.03041
G3 X118.291 Y97.563 I.108 J-.182 E.00956
G1 X118.407 Y97.254 E.0096
G3 X118.549 Y97.246 I.071 J-.003 E.00624
G1 X118.903 Y96.812 E.0163
G1 X118.819 Y96.728 E.00346
M204 P3000
G1 E-.7
G1 X120.261 Y94.165 Z.251 F21000
G1 Z.2 F720
G1 E.7 F1500
M204 P500
;TYPE:Support material
;WIDTH:0.5
G1 F2700
G1 X123.012 Y95.7 E.11734
G1 X122.404 Y96.79 E.04649
G1 X119.903 Y96.803 E.09315
G1 X119.596 Y96.85 E.01157
G1 X119.471 Y96.488 E.01426
G1 X119.323 Y96.504 E.00554
G1 X118.801 Y96.213 E.02226
G2 X117.971 Y98.825 I1.111 J1.79 E.11114
G1 X120.579 Y104.817 E.2434
G2 X122.325 Y106.063 I1.944 J-.878 E.08371
G1 X123.479 Y106.067 E.04298
G1 X123.433 Y105.784 E.01068
G1 X123.784 Y104.432 E.05203
G1 X123.493 Y104.643 E.01339
G3 X124.969 Y103.072 I7.341 J5.416 E.08048
G1 X125.521 Y103.074 E.02056
G1 X126.145 Y106.871 E.14332
G2 X125.402 Y109.167 I6.825 J3.475 E.09026
G2 X127.545 Y114.089 I5.245 J.644 E.20973
G1 X128.529 Y114.757 E.0443
G1 X128.64 Y115.516 E.02857
G1 X130.366 Y118.019 E.11324
G1 X129.579 Y118.562 E.03561
G3 X127.258 Y117.96 I.959 J-8.483 E.08961
G1 X127.432 Y117.641 E.01353
G2 X126.714 Y117.126 I-2.03 J2.069 E.03304
G1 X126.472 Y116.775 E.01588
G2 X125.168 Y117.451 I.918 J3.369 E.05512
G2 X124.504 Y119.132 I1.478 J1.555 E.06949
G1 X124.698 Y121.708 E.09622
G3 X124.66 Y122.104 I-.423 J.159 E.01534
G2 X125.51 Y123.214 I3.675 J-1.933 E.05232
G1 X126.029 Y122.968 E.02139
G1 X126.273 Y123.011 E.00923
G1 X126.414 Y122.656 E.01423
G2 X127.935 Y122.815 I1.541 J-7.412 E.05706
G1 X129.446 Y122.905 E.05638
G1 X130.265 Y123.723 E.04311
G1 X126.812 Y125.363 E.14238
G1 X126.317 Y126.252 E.0379
G3 X103.317 Y122.692 I13.568 J-163.769 E.86759
M73 P1 R28
G3 X98.415 Y121.552 I14.876 J-75.026 E.18749
G3 X91.383 Y103.045 I4.063 J-12.134 E.84313
G3 X95.165 Y97.492 I18.72 J8.686 E.25136
G3 X101.241 Y94.346 I8.699 J9.362 E.25799
G3 X108.093 Y93.473 I8.397 J38.563 E.2576
G3 X119.826 Y93.247 I10.382 J234.45 E.43714
G1 X120.232 Y94.103 E.03529
M204 P3000
G1 E-.7
G1 X129.571 Y118.317 Z.653 F21000
G1 Z.2 F720
G1 E.7 F1500
M204 P500
G1 F2700
G1 X129.571 Y117.591 E.02704
G1 X129 Y116.762 E.03749
G1 X129 Y118.055 E.04816
G1 X128.429 Y117.925 E.02181
M73 Q1 S32
G1 X128.429 Y115.933 E.07419
G3 X128.148 Y114.996 I1.181 J-.864 E.03715
G1 X127.857 Y114.799 E.01309
G1 X127.857 Y117.968 E.11803
M204 P3000
G1 E-.7
G1 X129 Y124.096 Z.309 F21000
G1 Z.2 F720
G1 E.7 F1500
M204 P500
G1 F2700
G1 X129 Y123.292 E.02995
G1 X128.429 Y123.257 E.02131
G1 X128.429 Y124.14 E.03289
G1 X127.857 Y124.411 E.02357
G1 X127.857 Y123.223 E.04425
G1 X127.286 Y123.191 E.0213
G1 X127.286 Y124.683 E.05557
G1 X126.715 Y124.954 E.02354
G1 X126.715 Y123.135 E.06775
G1 X126.668 Y123.13 E.00176
G1 X126.531 Y123.475 E.01383
G1 X126.143 Y123.406 E.01468
G1 X126.143 Y125.718 E.08611
G1 X126.087 Y125.82 E.00433
G1 X125.572 Y125.777 E.01925
G1 X125.572 Y123.64 E.0796
G1 X125.424 Y123.71 E.0061
G1 X125.001 Y123.287 E.02228
G1 X125.001 Y125.73 E.09099
G1 X124.429 Y125.683 E.02138
G1 X124.429 Y122.502 E.11848
G1 X124.195 Y122.146 E.01587
G2 X124.289 Y121.749 I-.393 J-.303 E.01566
G3 X124.107 Y118.678 I23.779 J-2.946 E.11466
G3 X124.429 Y117.743 I2.396 J.302 E.03709
G1 X124.429 Y104.158 E.50599
G1 X125.001 Y103.594 E.02992
G1 X125.001 Y117.052 E.50126
G1 X125.572 Y116.7 E.02498
G1 X125.572 Y112.39 E.16053
G1 X126.143 Y113.301 E.04005
G1 X126.143 Y116.466 E.11788
G1 X126.623 Y116.269 E.01933
G1 X126.715 Y116.402 E.00602
G1 X126.715 Y113.936 E.09185
G1 X127.286 Y114.409 E.02762
G1 X127.286 Y117.249 E.10578
M204 P3000
G1 E-.7
G1 X125.572 Y107.732 Z.369 F21000
G1 Z.2 F720
G1 E.7 F1500
M73 P1 R27
M204 P500
G1 F2700
G1 X125.572 Y104.652 E.11472
M204 P3000
G1 X123.858 Y125.841 F21000
M204 P500
G1 F2700
G1 X123.858 Y104.967 E.77748
M204 P3000
G1 X123.286 Y125.787 F21000
M204 P500
G1 F2700
G1 X123.286 Y106.478 E.71919
G1 X122.715 Y106.476 E.02127
G1 X122.715 Y125.52 E.70932
G1 X122.144 Y125.457 E.0214
G1 X122.144 Y106.454 E.70779
G1 X121.572 Y106.296 E.0221
G1 X121.572 Y125.394 E.71133
G1 X121.001 Y125.331 E.0214
G1 X121.001 Y105.972 E.72105
G3 X120.43 Y105.388 I1.346 J-1.89 E.03058
G1 X120.43 Y125.268 E.74045
G1 X119.858 Y125.196 E.02147
G1 X119.858 Y104.192 E.78232
G1 X119.287 Y102.879 E.05333
G1 X119.287 Y125.121 E.82843
G1 X118.716 Y125.046 E.02145
G1 X118.716 Y101.566 E.87454
G1 X118.144 Y100.253 E.05334
G1 X118.144 Y124.971 E.92065
G1 X117.573 Y124.894 E.02146
G1 X117.573 Y93.667 E1.16309
G1 X118.144 Y93.665 E.02127
G1 X118.144 Y96.212 E.09487
G3 X118.716 Y95.782 I1.53 J1.439 E.02678
G1 X118.716 Y93.663 E.07892
G1 X119.287 Y93.66 E.02127
G1 X119.287 Y96.013 E.08764
G2 X119.753 Y96.043 I.264 J-.482 E.01796
G1 X119.858 Y96.349 E.01205
G1 X119.858 Y94.276 E.07721
G1 X119.946 Y94.46 E.0076
G1 X120.43 Y94.73 E.02064
G1 X120.43 Y96.389 E.06179
G1 X121.001 Y96.386 E.02127
G1 X121.001 Y95.049 E.0498
G1 X121.572 Y95.368 E.02436
G1 X121.572 Y96.383 E.0378
G1 X122.144 Y96.38 E.02131
G1 X122.144 Y95.451 E.0346
M204 P3000
G1 E-.7
G1 X117.171 Y124.05 Z.707 F21000
G1 X117.002 Y125.023 Z.723
G1 Z.2 F720
G1 E.7 F1500
M204 P500
G1 F2700
G1 X117.002 Y93.67 E1.16778
G1 X116.43 Y93.673 E.02131
G1 X116.43 Y124.737 E1.15702
G1 X115.859 Y124.636 E.0216
G1 X115.859 Y93.679 E1.15303
G1 X115.288 Y93.684 E.02127
G1 X115.288 Y124.55 E1.14964
G1 X114.716 Y124.461 E.02156
G1 X114.716 Y93.69 E1.1461
G1 X114.145 Y93.697 E.02127
M73 P2 R27
G1 X114.145 Y124.366 E1.1423
G1 X113.574 Y124.27 E.02157
G1 X113.574 Y93.706 E1.13839
G1 X113.002 Y93.715 E.02131
G1 X113.002 Y124.172 E1.13441
G1 X112.431 Y124.073 E.02158
G1 X112.431 Y93.728 E1.13024
G1 X111.86 Y93.741 E.02127
G1 X111.86 Y123.97 E1.12592
G1 X111.288 Y123.868 E.02164
M73 Q2 S32
G1 X111.288 Y93.756 E1.12156
G1 X110.717 Y93.774 E.02128
G1 X110.717 Y123.762 E1.11694
G1 X110.145 Y123.655 E.02167
G1 X110.145 Y93.792 E1.11228
G1 X109.574 Y93.814 E.02128
G1 X109.574 Y123.548 E1.10748
G1 X109.003 Y123.437 E.02167
G1 X109.003 Y93.839 E1.10241
G1 X108.431 Y93.868 E.02133
G1 X108.431 Y123.326 E1.0972
G1 X107.86 Y123.213 E.02168
G1 X107.86 Y93.9 E1.0918
G1 X107.289 Y93.936 E.02131
G1 X107.289 Y123.098 E1.08617
G1 X106.717 Y122.983 E.02173
G1 X106.717 Y93.978 E1.08033
G1 X106.146 Y94.024 E.02134
G1 X106.146 Y122.866 E1.07425
G1 X105.575 Y122.748 E.02172
G1 X105.575 Y94.077 E1.06789
G1 X105.003 Y94.135 E.02141
G1 X105.003 Y122.629 E1.06129
G1 X104.432 Y122.508 E.02174
G1 X104.432 Y94.201 E1.05433
G1 X103.861 Y94.268 E.02141
G1 X103.861 Y122.387 E1.04733
G1 X103.289 Y122.265 E.02178
G1 X103.289 Y94.355 E1.03954
G1 X102.718 Y94.46 E.02162
G1 X102.718 Y122.142 E1.03105
G1 X102.147 Y122.018 E.02176
G1 X102.147 Y94.567 E1.02245
G1 X101.575 Y94.693 E.02182
G1 X101.575 Y121.894 E1.01313
G1 X101.004 Y121.768 E.02178
M73 P3 R27
G1 X101.004 Y94.836 E1.00311
G1 X100.433 Y94.989 E.02202
G1 X100.433 Y121.641 E.99269
G1 X99.861 Y121.515 E.02182
G1 X99.861 Y95.169 E.98129
G1 X99.29 Y95.383 E.02271
G1 X99.29 Y121.367 E.96781
G1 X98.718 Y121.209 E.0221
G1 X98.718 Y95.62 E.95309
G1 X98.147 Y95.889 E.02351
G1 X98.147 Y121.006 E.93551
G1 X97.576 Y120.784 E.02282
G1 X97.576 Y96.197 E.91577
G1 X97.004 Y96.548 E.025
G1 X97.004 Y120.516 E.89272
G1 X96.433 Y120.224 E.02389
G1 X96.433 Y96.952 E.86679
G1 X95.862 Y97.417 E.02743
G1 X95.862 Y119.877 E.83655
M73 Q3 S32
G1 X95.29 Y119.509 E.02533
G1 X95.29 Y97.951 E.80295
G1 X94.719 Y98.565 E.03123
G1 X94.719 Y119.062 E.76344
G1 X94.148 Y118.587 E.02766
G1 X94.148 Y99.262 E.71978
G1 X93.576 Y100.06 E.03657
G1 X93.576 Y118.028 E.66924
G1 X93.005 Y117.389 E.03192
G1 X93.005 Y100.958 E.61199
G1 X92.434 Y101.947 E.04254
G1 X92.434 Y116.667 E.54826
G1 X91.862 Y115.819 E.0381
G1 X91.862 Y103.016 E.47686
G1 X91.291 Y104.16 E.04762
G1 X91.291 Y114.756 E.39466
G1 X90.72 Y113.305 E.05808
G1 X90.72 Y105.603 E.28687
G2 X90.148 Y108.368 I10.694 J3.651 E.10544
G1 X90.148 Y111.936 E.13289
M204 P3000
G1 E-.7
G1 X118.203 Y104.48 Z.707 F21000
G1 X120.269 Y103.93 Z.74
G1 X122.336 Y103.381 Z.766
G1 X122.584 Y103.315 Z.769
G1 Z.2 F720
G1 E.7 F1500
M204 P500
;TYPE:Perimeter
;WIDTH:0.499999
G1 F2700
G1 X120.41 Y98.32 E.2029
G1 X140.786 Y98.324 E.75893
G3 X144.501 Y98.357 I1.341 J57.596 E.1384
G3 X148.33 Y99.333 I-1.049 J12.119 E.14783
G3 X151.614 Y101.529 I-5.03 J11.076 E.1478
G3 X153.978 Y104.695 I-8.435 J8.765 E.14782
G3 X154.726 Y106.531 I-12.723 J6.248 E.0739
G3 X155.154 Y108.496 I-17.871 J4.927 E.07494
G1 X155.24 Y109.485 E.03698
G3 X154.754 Y113.377 I-12.107 J.463 E.14673
G3 X152.988 Y116.911 I-11.62 J-3.597 E.1478
G3 X150.145 Y119.655 I-9.756 J-7.265 E.14782
G3 X146.55 Y121.294 I-6.776 J-10.102 E.14781
G3 X143.584 Y121.68 I-3.108 J-12.276 E.11166
G1 X141.622 Y121.696 E.07308
G3 X132.825 Y121.54 I1.581 J-338.418 E.32772
G3 X127.767 Y121.289 I8.826 J-228.65 E.18863
G1 X127.107 Y121.236 E.02466
G1 X126.975 Y119.48 E.06559
G2 X130.463 Y120.144 I3.678 J-9.83 E.13289
G1 X143.466 Y120.319 E.48436
G2 X145.364 Y120.162 I-.118 J-13.016 E.071
G2 X148.077 Y119.284 I-2.043 J-10.941 E.1065
G2 X149.685 Y118.315 I-5.695 J-11.268 E.06999
G2 X151.878 Y116.112 I-7.024 J-9.185 E.11613
G2 X153.469 Y112.927 I-8.6 J-6.284 E.13323
G2 X153.892 Y110.107 I-10.705 J-3.049 E.1065
G2 X151.856 Y103.847 I-10.579 J-.021 E.24932
G2 X149.877 Y101.83 I-8.823 J6.677 E.10554
G2 X147.459 Y100.44 I-6.719 J8.892 E.10415
G2 X143.717 Y99.681 I-4.096 J10.591 E.14289
G1 X130.725 Y99.507 E.48395
G2 X126.359 Y100.421 I-.06 J10.594 E.16739
G2 X123.408 Y102.432 I4.492 J9.763 E.13363
G1 X122.618 Y103.306 E.04388
M204 P3000
M204 T250
G1 X122.571 Y104.048 F21000
M204 T7000
M204 P500
;TYPE:External perimeter
G1 F2700
G1 X122.488 Y104.069 E.00319
G1 X122.368 Y103.965 E.00591
G1 X119.816 Y98.1 E.23823
G1 X119.825 Y97.936 E.00612
G1 X119.971 Y97.863 E.00608
G1 X140.782 Y97.867 E.77513
G3 X144.537 Y97.901 I1.346 J58.068 E.13989
M73 Q3 S31
G3 X147.557 Y98.535 I-1.162 J13.04 E.1152
G3 X150.32 Y99.911 I-4.413 J12.326 E.11523
G3 X152.646 Y101.938 I-7.379 J10.814 E.11518
G3 X154.386 Y104.487 I-9.867 J8.604 E.11522
G3 X155.427 Y107.392 I-11.718 J5.837 E.11521
G3 X155.656 Y108.969 I-11.858 J2.525 E.0594
G1 X155.697 Y109.483 E.01921
G3 X155.448 Y112.51 I-12.943 J.457 E.11339
G3 X154.431 Y115.424 I-12.783 J-2.827 E.11522
G3 X152.712 Y117.987 I-11.657 J-5.96 E.11521
G3 X150.403 Y120.033 I-9.777 J-8.707 E.11517
G3 X147.652 Y121.431 I-7.266 J-10.891 E.1152
G3 X144.637 Y122.09 I-4.284 J-12.371 E.11522
G3 X141.621 Y122.153 I-2.589 J-52.245 E.11237
G3 X132.809 Y121.997 I1.584 J-338.981 E.32827
G3 X127.464 Y121.73 I9.465 J-242.812 E.19933
G1 X126.88 Y121.673 E.02186
M73 P4 R27
G1 X126.729 Y121.624 E.00591
G1 X126.67 Y121.515 E.00462
G3 X126.498 Y118.946 I66.855 J-5.77 E.09591
G1 X126.582 Y118.87 E.00422
G1 X126.712 Y118.892 E.00491
G2 X130.47 Y119.687 I3.971 J-9.491 E.14391
G1 X143.458 Y119.862 E.4838
G2 X146.155 Y119.519 I.007 J-10.715 E.10154
G2 X148.661 Y118.449 I-2.889 J-10.238 E.10177
G2 X151.504 Y115.849 I-5.57 J-8.947 E.14431
G2 X153.025 Y112.816 I-8.204 J-6.011 E.12697
G2 X153.404 Y109.211 I-9.865 J-2.86 E.13572
G2 X152.365 Y105.547 I-10.536 J1.007 E.14263
G2 X150.307 Y102.794 I-9.025 J4.603 E.12864
G2 X148.078 Y101.226 I-7.183 J7.845 E.10179
G2 X143.711 Y100.138 I-4.669 J9.434 E.16893
G1 X130.729 Y99.964 E.48357
G2 X125.068 Y101.665 I-.085 J9.986 E.22351
G2 X122.623 Y104.025 I5.998 J8.662 E.12712
M204 P3000
G1 X122.286 Y103.809 F21000
G1 E-.7 F2700
G1 X150.008 Y100.476 Z.687 F21000
G1 Z.2 F720
G1 E.7 F1500
M204 P500
;TYPE:Solid infill
;WIDTH:0.504057
G1 F6000
G3 X152.013 Y102.5 I-84.411 J85.601 E.10706
G3 X153.16 Y104.036 I-10.379 J8.948 E.07209
G1 X153.476 Y104.596 E.02416
